svg/design/palette_line.svg

<?xml version="1.0" encoding="UTF-8"?>
<svg width="24px" height="24px" viewBox="0 0 24 24" version="1.1" xmlns="http://www.w3.org/2000/svg" xmlns:xlink="http://www.w3.org/1999/xlink">
    <title>palette_line</title>
    <g id="页面-1" stroke="none" stroke-width="1" fill="none" fill-rule="evenodd">
        <g id="Design" transform="translate(-384.000000, 0.000000)" fill-rule="nonzero">
            <g id="palette_line" transform="translate(384.000000, 0.000000)">
                 <path d="M24,0 L24,24 L0,24 L0,0 L24,0 Z M12.5934901,23.257841 L12.5819402,23.2595131 L12.5108777,23.2950439 L12.4918791,23.2987469 L12.4918791,23.2987469 L12.4767152,23.2950439 L12.4056548,23.2595131 C12.3958229,23.2563662 12.3870493,23.2590235 12.3821421,23.2649074 L12.3780323,23.275831 L12.360941,23.7031097 L12.3658947,23.7234994 L12.3769048,23.7357139 L12.4804777,23.8096931 L12.4953491,23.8136134 L12.4953491,23.8136134 L12.5071152,23.8096931 L12.6106902,23.7357139 L12.6232938,23.7196733 L12.6232938,23.7196733 L12.6266527,23.7031097 L12.609561,23.275831 C12.6075724,23.2657013 12.6010112,23.2592993 12.5934901,23.257841 L12.5934901,23.257841 Z M12.8583906,23.1452862 L12.8445485,23.1473072 L12.6598443,23.2396597 L12.6498822,23.2499052 L12.6498822,23.2499052 L12.6471943,23.2611114 L12.6650943,23.6906389 L12.6699349,23.7034178 L12.6699349,23.7034178 L12.678386,23.7104931 L12.8793402,23.8032389 C12.8914285,23.8068999 12.9022333,23.8029875 12.9078286,23.7952264 L12.9118235,23.7811639 L12.8776777,23.1665331 C12.8752882,23.1545897 12.8674102,23.1470016 12.8583906,23.1452862 L12.8583906,23.1452862 Z M12.1430473,23.1473072 C12.1332178,23.1423925 12.1221763,23.1452606 12.1156365,23.1525954 L12.1099173,23.1665331 L12.0757714,23.7811639 C12.0751323,23.7926639 12.0828099,23.8018602 12.0926481,23.8045676 L12.108256,23.8032389 L12.3092106,23.7104931 L12.3186497,23.7024347 L12.3186497,23.7024347 L12.3225043,23.6906389 L12.340401,23.2611114 L12.337245,23.2485176 L12.337245,23.2485176 L12.3277531,23.2396597 L12.1430473,23.1473072 Z" id="MingCute" fill-rule="nonzero"></path>
                <path d="M12,2 C17.5228,2 22,6.47715 22,12 C22,12.6488 21.9381,13.284 21.8196,13.8999 C21.4339,15.904 19.4227,16.7509 17.7377,16.4701 L15.9978,16.1801 C15.587,16.1116 15.1684,16.2458 14.874,16.5402 C14.5041,16.9101 14.3273,17.4186 14.5762,17.9163 C14.9989,18.7617 15.0048,19.7283 14.6312,20.5194 C14.1307,21.5794 13.1096,22 12,22 C6.47715,22 2,17.5228 2,12 C2,6.47715 6.47715,2 12,2 Z M12,4 C7.58172,4 4,7.58172 4,12 C4,16.4183 7.58172,20 12,20 L12.1948856,19.9979 C12.452652,19.98854 12.69406,19.9379 12.8227,19.6655 C12.9271,19.4444 12.9432,19.1224 12.7873,18.8107 C12.1566,17.5492 12.4852,16.1006 13.4598,15.126 C14.211,14.3748 15.2787,14.0327 16.3266,14.2073 L18.0665,14.4973 C19.0243,14.6569 19.735,14.1487 19.8556,13.5219 C19.9503,13.03 20,12.5213 20,12 C20,7.58172 16.4183,4 12,4 Z M7.5,11 C8.32843,11 9,11.6716 9,12.5 C9,13.3284 8.32843,14 7.5,14 C6.67157,14 6,13.3284 6,12.5 C6,11.6716 6.67157,11 7.5,11 Z M14.5,7 C15.3284,7 16,7.67157 16,8.5 C16,9.32843 15.3284,10 14.5,10 C13.6716,10 13,9.32843 13,8.5 C13,7.67157 13.6716,7 14.5,7 Z M9.5,7 C10.3284,7 11,7.67157 11,8.5 C11,9.32843 10.3284,10 9.5,10 C8.67157,10 8,9.32843 8,8.5 C8,7.67157 8.67157,7 9.5,7 Z" id="形状" fill="#09244B"></path>
            </g>
        </g>
    </g>
</svg>

<svg xmlns="http://www.w3.org/2000/svg" width="24" height="24"><g fill="none" fill-rule="nonzero"><path d="M24 0v24H0V0h24ZM12.593 23.258l-.011.002-.071.035-.02.004-.014-.004-.071-.035c-.01-.004-.019-.001-.024.005l-.004.01-.017.428.005.02.01.013.104.074.015.004.012-.004.104-.074.012-.016.004-.017-.017-.427c-.002-.01-.009-.017-.017-.018Zm.265-.113-.013.002-.185.093-.01.01-.003.011.018.43.005.012.008.007.201.093c.012.004.023 0 .029-.008l.004-.014-.034-.614c-.003-.012-.01-.02-.02-.022Zm-.715.002a.023.023 0 0 0-.027.006l-.006.014-.034.614c0 .012.007.02.017.024l.015-.002.201-.093.01-.008.004-.011.017-.43-.003-.012-.01-.01-.184-.092Z"/><path fill="#09244B" d="M12 2c5.523 0 10 4.477 10 10 0 .649-.062 1.284-.18 1.9-.386 2.004-2.397 2.85-4.082 2.57l-1.74-.29a1.29 1.29 0 0 0-1.124.36c-.37.37-.547.879-.298 1.376.423.846.429 1.812.055 2.603C14.131 21.58 13.11 22 12 22 6.477 22 2 17.523 2 12S6.477 2 12 2Zm0 2a8 8 0 1 0 0 16l.195-.002c.258-.01.5-.06.628-.332a.993.993 0 0 0-.036-.855c-.63-1.262-.302-2.71.673-3.685a3.29 3.29 0 0 1 2.867-.919l1.74.29c.957.16 1.668-.348 1.789-.975A8 8 0 0 0 12 4Zm-4.5 7a1.5 1.5 0 1 1 0 3 1.5 1.5 0 0 1 0-3Zm7-4a1.5 1.5 0 1 1 0 3 1.5 1.5 0 0 1 0-3Zm-5 0a1.5 1.5 0 1 1 0 3 1.5 1.5 0 0 1 0-3Z"/></g></svg>
